svg/rdt_result_no_test_negative.svg

<svg width="48" height="48" viewBox="0 0 48 48" fill="none" xmlns="http://www.w3.org/2000/svg">
<path fill-rule="evenodd" clip-rule="evenodd" d="M0 0.00599996V48.0874H48.1714V0.00599996L0 0.00585938V0.00599996ZM24.2067 4.00785C26.882 4.03473 29.5247 4.59811 31.9784 5.66463C34.4321 6.73116 36.6468 8.27916 38.4915 10.217C42.1126 14.0287 44.0872 19.1131 43.9878 24.3697C43.8884 29.6264 41.7231 34.6324 37.9605 38.3046L37.9705 38.3136L37.7825 38.4916L37.5975 38.6696L37.5895 38.6616C33.7331 42.2361 28.624 44.148 23.3684 43.9835C18.1127 43.819 13.1333 41.5913 9.50788 37.7826C5.88675 33.9709 3.91222 28.8865 4.0116 23.6299C4.11097 18.3732 6.27626 13.3672 10.0389 9.69498L10.0289 9.68548L10.2169 9.50778L10.4019 9.33008L10.4099 9.33788C14.1587 5.86345 19.0956 3.95622 24.2067 4.00785ZM23.0897 4.54694C18.5017 4.76332 14.1376 6.59363 10.7679 9.71478L37.6065 37.9334C41.2709 34.3553 43.3791 29.4783 43.475 24.3576C43.5708 19.2369 41.6465 14.2844 38.1185 10.5718C36.1919 8.54875 33.8527 6.96372 31.2596 5.92417C28.6666 4.88462 25.8803 4.41485 23.0897 4.54674V4.54694ZM10.3929 10.066C6.72844 13.644 4.62022 18.5211 4.52438 23.6418C4.42855 28.7624 6.3528 33.715 9.88078 37.4276C13.4123 41.1362 18.2618 43.3053 23.3803 43.4656C28.4988 43.626 33.4747 41.7648 37.2314 38.2846L10.3928 10.066H10.3929ZM9.18349 19.9769H19.3514L21.4793 22.2188H9.47048C8.53489 22.2188 7.7788 22.9728 7.7788 23.9078C7.7788 24.8428 8.53489 25.5978 9.47018 25.5978H24.687L26.989 28.0227H9.18319C6.97271 28.0227 5.19454 26.2408 5.19454 24.0308V23.9668C5.19454 21.7568 6.97271 19.9769 9.18279 19.9769H9.18349ZM21.0563 19.9769H38.8151C41.0251 19.9769 42.8041 21.7568 42.8041 23.9668V24.0308C42.8041 26.2408 41.0251 28.0227 38.8151 28.0227H28.6962L26.3943 25.5978H28.2882C29.2232 25.5978 29.9792 24.8428 29.9792 23.9078C29.9792 22.9728 29.2232 22.2188 28.2882 22.2188H23.1853L21.0563 19.9769ZM38.8371 21.9648C37.7191 21.9648 36.8141 22.8708 36.8131 23.9878C36.8141 25.1058 37.7191 26.0118 38.8371 26.0118C39.9551 26.0128 40.8621 25.1058 40.8621 23.9878C40.8621 22.8698 39.9551 21.9638 38.8371 21.9648ZM33.4602 22.7068C32.7492 22.7078 32.1722 23.2848 32.1732 23.9958C32.1732 24.7068 32.7492 25.2828 33.4602 25.2828C34.1712 25.2838 34.7482 24.7068 34.7492 23.9958C34.7492 23.2838 34.1722 22.7068 33.4602 22.7068Z" fill="#333333"/>
</svg>

<?xml version="1.0" encoding="UTF-8" standalone="no"?>
<!-- Created with Inkscape (http://www.inkscape.org/) -->
<svg id="svg8" xmlns:rdf="http://www.w3.org/1999/02/22-rdf-syntax-ns#" xmlns="http://www.w3.org/2000/svg" xmlns:osb="http://www.openswatchbook.org/uri/2009/osb" height="48" width="48" version="1.1" enable-background="new" xmlns:cc="http://creativecommons.org/ns#" viewBox="0 0 12.7 12.7" xmlns:dc="http://purl.org/dc/elements/1.1/">
 <title id="title4753">UIO-icon</title>
 <metadata id="metadata5">
  <rdf:RDF>
   <cc:Work rdf:about="">
    <dc:format>image/svg+xml</dc:format>
    <dc:type rdf:resource="http://purl.org/dc/dcmitype/StillImage"/>
    <dc:title>UIO-icon</dc:title>
    <dc:creator>
     <cc:Agent>
      <dc:title>Joaquín Urbano</dc:title>
     </cc:Agent>
    </dc:creator>
    <dc:rights>
     <cc:Agent>
      <dc:title>GPL</dc:title>
     </cc:Agent>
    </dc:rights>
   </cc:Work>
  </rdf:RDF>
 </metadata>
 <g id="layer1" fill="#333" transform="translate(0,-284.3)">
  <path id="rect960" d="m0 0.0058594v48.082h48.172v-48.082l-48.172-0.0001406zm24.207 4.0019a20 20 0 0 1 14.285 6.2092 20 20 0 0 1 -0.531 28.088l0.01 0.009-0.188 0.178-0.185 0.178-0.008-0.008a20 20 0 0 1 -28.082 -0.879 20 20 0 0 1 0.531 -28.088l-0.01-0.0095 0.188-0.1777 0.185-0.1777 0.008 0.0078a20 20 0 0 1 13.797 -5.3301zm-1.117 0.5391a19.484 19.484 0 0 0 -12.322 5.1679l26.839 28.219a19.484 19.484 0 0 0 0.512 -27.362 19.484 19.484 0 0 0 -15.029 -6.0251zm-12.697 5.5191a19.484 19.484 0 0 0 -0.5121 27.362 19.484 19.484 0 0 0 27.351 0.857l-26.839-28.219zm-1.2094 9.911h10.168l2.128 2.242h-12.009c-0.9356 0-1.6917 0.754-1.6917 1.689s0.7561 1.69 1.6914 1.69h15.217l2.302 2.425h-17.806c-2.2105 0-3.9887-1.782-3.9887-3.992v-0.064c0-2.21 1.7782-3.99 3.9883-3.99zm11.873 0h17.759c2.21 0 3.989 1.78 3.989 3.99v0.064c0 2.21-1.779 3.992-3.989 3.992h-10.119l-2.302-2.425h1.894c0.935 0 1.691-0.755 1.691-1.69s-0.756-1.689-1.691-1.689h-5.103l-2.129-2.242zm17.781 1.988c-1.118 0-2.023 0.906-2.024 2.023 0.001 1.118 0.906 2.024 2.024 2.024 1.118 0.001 2.025-0.906 2.025-2.024s-0.907-2.024-2.025-2.023zm-5.377 0.742c-0.711 0.001-1.288 0.578-1.287 1.289 0 0.711 0.576 1.287 1.287 1.287 0.711 0.001 1.288-0.576 1.289-1.287 0-0.712-0.577-1.289-1.289-1.289z" fill-rule="evenodd" transform="matrix(.26458 0 0 .26458 0 284.3)"/>
 </g>
</svg>
